docs/_static/logo.svg

<?xml version="1.0" encoding="UTF-8" standalone="no"?>
<svg
   xmlns:dc="http://purl.org/dc/elements/1.1/"
   xmlns:cc="http://creativecommons.org/ns#"
   xmlns:rdf="http://www.w3.org/1999/02/22-rdf-syntax-ns#"
   xmlns:svg="http://www.w3.org/2000/svg"
   xmlns="http://www.w3.org/2000/svg"
   xmlns:sodipodi="http://sodipodi.sourceforge.net/DTD/sodipodi-0.dtd"
   xmlns:inkscape="http://www.inkscape.org/namespaces/inkscape"
   version="1.1"
   width="80"
   height="24"
   viewBox="0 0 80 24"
   id="svg1278"
   sodipodi:docname="logo.svg"
   inkscape:version="1.0.2 (e86c870879, 2021-01-15, custom)">
  <metadata
     id="metadata1284">
    <rdf:RDF>
      <cc:Work
         rdf:about="">
        <dc:format>image/svg+xml</dc:format>
        <dc:type
           rdf:resource="http://purl.org/dc/dcmitype/StillImage" />
        <dc:title />
      </cc:Work>
    </rdf:RDF>
  </metadata>
  <defs
     id="defs1282" />
  <sodipodi:namedview
     pagecolor="#ffffff"
     bordercolor="#666666"
     borderopacity="1"
     objecttolerance="10"
     gridtolerance="10"
     guidetolerance="10"
     inkscape:pageopacity="0"
     inkscape:pageshadow="2"
     inkscape:window-width="1910"
     inkscape:window-height="1023"
     id="namedview1280"
     showgrid="false"
     inkscape:zoom="5.8690859"
     inkscape:cx="56.988965"
     inkscape:cy="21.51299"
     inkscape:window-x="3"
     inkscape:window-y="52"
     inkscape:window-maximized="0"
     inkscape:current-layer="svg1278"
     inkscape:document-rotation="0" />
  <path
     d="m 21.5,9 h -5 L 18.36,7.14 C 16.9,5.23 14.59,4 12,4 7.58,4 4,7.58 4,12 c 0,1.83 0.61,3.5 1.64,4.85 1.22,-1.4 3.51,-2.35 6.36,-2.35 2.85,0 5.15,0.95 6.36,2.35 C 19.39,15.5 20,13.83 20,12 h 2 C 22,17.5 17.5,22 12,22 6.5,22 2,17.5 2,12 2,6.5 6.5,2 12,2 c 3.14,0 5.95,1.45 7.78,3.72 L 21.5,4 V 9 M 12,7 c 1.66,0 3,1.34 3,3 0,1.66 -1.34,3 -3,3 -1.66,0 -3,-1.34 -3,-3 0,-1.66 1.34,-3 3,-3 z"
     id="path1276" />
  <text
     xml:space="preserve"
     style="font-style:normal;font-weight:normal;font-size:16px;line-height:1.25;font-family:sans-serif;letter-spacing:0px;word-spacing:0px;fill:#000000;fill-opacity:1;stroke:none;stroke-width:1.2965"
     x="28.012569"
     y="12.148713"
     id="text1288"
     transform="scale(0.77131057,1.2964946)"><tspan
       sodipodi:role="line"
       id="tspan1286"
       x="28.012569"
       y="12.148713"
       style="font-style:normal;font-variant:normal;font-weight:normal;font-stretch:normal;font-size:16px;font-family:Consolas;-inkscape-font-specification:Consolas;stroke-width:1.2965"><tspan
         style="font-style:normal;font-variant:normal;font-weight:normal;font-stretch:normal;font-size:16px;font-family:Consolas;-inkscape-font-specification:Consolas;letter-spacing:-1.30946px;fill:#c8b7b7;stroke-width:1.2965"
         id="tspan1298"
         dy="0"
         dx="0">py</tspan></tspan></text>
  <text
     xml:space="preserve"
     style="font-style:normal;font-weight:normal;font-size:40px;line-height:1.25;font-family:sans-serif;fill:#000000;fill-opacity:1;stroke:none"
     x="108.70819"
     y="8.0841751"
     id="text1315"><tspan
       sodipodi:role="line"
       id="tspan1313"
       x="108.70819"
       y="8.0841751"></tspan></text>
  <text
     xml:space="preserve"
     style="font-style:normal;font-weight:normal;font-size:17.3333px;line-height:1.25;font-family:sans-serif;letter-spacing:0px;word-spacing:0px;fill:#000000;fill-opacity:1;stroke:none;stroke-width:1.2965"
     x="41.636776"
     y="15.326297"
     id="text1288-8"
     transform="scale(0.77131057,1.2964946)"><tspan
       sodipodi:role="line"
       id="tspan1286-9"
       x="41.636776"
       y="15.326297"
       style="font-style:normal;font-variant:normal;font-weight:normal;font-stretch:normal;font-size:17.3333px;font-family:'Font Awesome 5 Brands';-inkscape-font-specification:'Font Awesome 5 Brands';stroke-width:1.2965"><tspan
   style="font-style:normal;font-variant:normal;font-weight:normal;font-stretch:normal;font-size:17.3333px;font-family:'Font Awesome 5 Brands';-inkscape-font-specification:'Font Awesome 5 Brands';baseline-shift:baseline;fill:#d4aa00;stroke-width:1.2965"
   id="tspan1290-7">ADL</tspan>ML</tspan></text>
</svg>

<?xml version="1.0" encoding="UTF-8"?>
<!DOCTYPE svg PUBLIC "-//W3C//DTD SVG 1.1//EN" "http://www.w3.org/Graphics/SVG/1.1/DTD/svg11.dtd">
<svg xmlns="http://www.w3.org/2000/svg" xmlns:xlink="http://www.w3.org/1999/xlink" version="1.1" width="24" height="24" viewBox="0 0 24 24">
<path d="M21.5,9H16.5L18.36,7.14C16.9,5.23 14.59,4 12,4C7.58,4 4,7.58 4,12C4,13.83 4.61,15.5 5.64,16.85C6.86,15.45 9.15,14.5 12,14.5C14.85,14.5 17.15,15.45 18.36,16.85C19.39,15.5 20,13.83 20,12H22C22,17.5 17.5,22 12,22C6.5,22 2,17.5 2,12C2,6.5 6.5,2 12,2C15.14,2 17.95,3.45 19.78,5.72L21.5,4V9M12,7C13.66,7 15,8.34 15,10C15,11.66 13.66,13 12,13C10.34,13 9,11.66 9,10C9,8.34 10.34,7 12,7Z" />
</svg>
